X: 21
T: Morgiana in Ireland
R: jig
M: 6/8
L: 1/8
Z: 2010 John Chambers <jc:trillian.mit.edu>
B: Anonymous manuscript tune book (1800-1840) p.10
F: http://www.asaplive.com/archive/browse_by_collection.asp
N: The asaplive.com web site is complex, and links to its files don't usually work.
K: G
|: D2D G2G | AGA B3  | D2D G2A | B2c BGE |\
   D2D G2G | AGA B2e | edc BcA | G2A BGE :|
|: d2d dcB | e2f g3  | ded dcB | e2f gdB |\
   d2d dcB | efe efg | dec BcA | G2A BGE |
   GFG B<dz  | AGA c<ez | GFG G2A | B2c BGE |\
   GFG B<dz | c<ez B<dz | e<gz B<dz | G2A BGE :|


%%sep 5 1 500

